(10.0 x 3.0 12.7in gap)                        
(T1 D=4. CR=0. - ZMIN=-3.683 - FLAT END MILL)
G90 G94 G91.1 G40 G49 G17
G21
G53 G0 Z-5.

(BORE1)
T1 M6
S24000 M3
G17 G90 G94
G56 

G0 X12.7 Y12.7
m98 P1000 L2 
m98 P1001 

G92.1
M5
G53 G0 Z-5.
M30

O1000
m98 P2000 L9 
M98 P2001 

G0 X12.7
G92.1
G90
G0 Y12.7
M99

O1001
m98 P2000 L9 
M98 P2001

G92.1
M99

O2000

G92 X0 Y0
G0 X0.355 Y0.245
G43 Z5.08 H1
G0 Z2.159
G1 Z0.527 F1016.0 
G18 G3 X-0.045 Z0.127 I-0.4 K0.
G1 X-0.245
G17 G3 X-0.489 Y0. I0. J-0.245
X0.489 Z0.04 I0.489 J0.
X-0.489 Z-0.047 I-0.489 J0.
X0.489 Z-0.134 I0.489 J0.
X-0.489 Z-0.221 I-0.489 J0.
X0.489 Z-0.308 I0.489 J0.
X-0.489 Z-0.395 I-0.489 J0.
X0.489 Z-0.481 I0.489 J0.
X-0.489 Z-0.568 I-0.489 J0.
X0.489 Z-0.655 I0.489 J0.
X-0.489 Z-0.742 I-0.489 J0.
X0.489 Z-0.829 I0.489 J0.
X-0.489 Z-0.916 I-0.489 J0.
X0.489 Z-1.003 I0.489 J0.
X-0.489 Z-1.09 I-0.489 J0.
X0.489 Z-1.177 I0.489 J0.
X-0.489 Z-1.264 I-0.489 J0.
X0.489 Z-1.351 I0.489 J0.
X-0.489 Z-1.438 I-0.489 J0.
X0.489 Z-1.525 I0.489 J0.
X-0.489 Z-1.611 I-0.489 J0.
X0.489 Z-1.698 I0.489 J0.
X-0.489 Z-1.785 I-0.489 J0.
X0.489 Z-1.872 I0.489 J0.
X-0.489 Z-1.959 I-0.489 J0.
X0.489 Z-2.046 I0.489 J0.
X-0.489 Z-2.133 I-0.489 J0.
X0.489 Z-2.22 I0.489 J0.
X-0.489 Z-2.307 I-0.489 J0.
X0.489 Z-2.394 I0.489 J0.
X-0.489 Z-2.481 I-0.489 J0.
X0.489 Z-2.568 I0.489 J0.
X-0.489 Z-2.655 I-0.489 J0.
X0.489 Z-2.742 I0.489 J0.
X-0.489 Z-2.828 I-0.489 J0.
X0.489 Z-2.915 I0.489 J0.
X-0.489 Z-3.002 I-0.489 J0.
X0.489 Z-3.089 I0.489 J0.
X-0.489 Z-3.176 I-0.489 J0.
X0.489 Z-3.263 I0.489 J0.
X-0.489 Z-3.35 I-0.489 J0.
X0.489 Z-3.437 I0.489 J0.
X-0.489 Z-3.524 I-0.489 J0.
X0.489 Z-3.611 I0.489 J0.
X-0.422 Y0.248 Z-3.683 I-0.489 J0.
X0.422 Y-0.248 I0.422 J-0.248
X-0.422 Y0.248 I-0.422 J0.248
X-0.335 Y-0.087 I0.211 J-0.124
G1 X-0.162 Y-0.188
X-0.095 Y-0.228 Z-3.675
X-0.03 Y-0.266 Z-3.653
X0.029 Y-0.301 Z-3.616
X0.082 Y-0.332 Z-3.566
X0.124 Y-0.357 Z-3.505
X0.156 Y-0.375 Z-3.436
X0.176 Y-0.387 Z-3.361
X0.183 Y-0.391 Z-3.283
G0 Z5.08

G0 X0 Y12.7 
M99

O2001

G92 X0 Y0
G0 X0.355 Y0.245
G43 Z5.08 H1
G0 Z2.159
G1 Z0.527 F1016.0 
G18 G3 X-0.045 Z0.127 I-0.4 K0.
G1 X-0.245
G17 G3 X-0.489 Y0. I0. J-0.245
X0.489 Z0.04 I0.489 J0.
X-0.489 Z-0.047 I-0.489 J0.
X0.489 Z-0.134 I0.489 J0.
X-0.489 Z-0.221 I-0.489 J0.
X0.489 Z-0.308 I0.489 J0.
X-0.489 Z-0.395 I-0.489 J0.
X0.489 Z-0.481 I0.489 J0.
X-0.489 Z-0.568 I-0.489 J0.
X0.489 Z-0.655 I0.489 J0.
X-0.489 Z-0.742 I-0.489 J0.
X0.489 Z-0.829 I0.489 J0.
X-0.489 Z-0.916 I-0.489 J0.
X0.489 Z-1.003 I0.489 J0.
X-0.489 Z-1.09 I-0.489 J0.
X0.489 Z-1.177 I0.489 J0.
X-0.489 Z-1.264 I-0.489 J0.
X0.489 Z-1.351 I0.489 J0.
X-0.489 Z-1.438 I-0.489 J0.
X0.489 Z-1.525 I0.489 J0.
X-0.489 Z-1.611 I-0.489 J0.
X0.489 Z-1.698 I0.489 J0.
X-0.489 Z-1.785 I-0.489 J0.
X0.489 Z-1.872 I0.489 J0.
X-0.489 Z-1.959 I-0.489 J0.
X0.489 Z-2.046 I0.489 J0.
X-0.489 Z-2.133 I-0.489 J0.
X0.489 Z-2.22 I0.489 J0.
X-0.489 Z-2.307 I-0.489 J0.
X0.489 Z-2.394 I0.489 J0.
X-0.489 Z-2.481 I-0.489 J0.
X0.489 Z-2.568 I0.489 J0.
X-0.489 Z-2.655 I-0.489 J0.
X0.489 Z-2.742 I0.489 J0.
X-0.489 Z-2.828 I-0.489 J0.
X0.489 Z-2.915 I0.489 J0.
X-0.489 Z-3.002 I-0.489 J0.
X0.489 Z-3.089 I0.489 J0.
X-0.489 Z-3.176 I-0.489 J0.
X0.489 Z-3.263 I0.489 J0.
X-0.489 Z-3.35 I-0.489 J0.
X0.489 Z-3.437 I0.489 J0.
X-0.489 Z-3.524 I-0.489 J0.
X0.489 Z-3.611 I0.489 J0.
X-0.422 Y0.248 Z-3.683 I-0.489 J0.
X0.422 Y-0.248 I0.422 J-0.248
X-0.422 Y0.248 I-0.422 J0.248
X-0.335 Y-0.087 I0.211 J-0.124
G1 X-0.162 Y-0.188
X-0.095 Y-0.228 Z-3.675
X-0.03 Y-0.266 Z-3.653
X0.029 Y-0.301 Z-3.616
X0.082 Y-0.332 Z-3.566
X0.124 Y-0.357 Z-3.505
X0.156 Y-0.375 Z-3.436
X0.176 Y-0.387 Z-3.361
X0.183 Y-0.391 Z-3.283
G0 X0 Y0 Z5.08

M99
%
